icons/chevron-left-up.svg

<?xml version="1.0" standalone="no"?><!-- Generator: Gravit.io --><svg xmlns="http://www.w3.org/2000/svg" xmlns:xlink="http://www.w3.org/1999/xlink" width="96" height="96"><path d=" M 15.787471873040289 76.31581234260875 L 15.716761194921645 20.949351375702086 L 17.272396113532054 17.27239611353204 L 20.949351375702093 15.71676119492163 L 76.31581234260878 15.787471873040303 C 77.37647251438858 15.716761194921645 78.36642200804975 16.141025263633576 79.14423946735496 16.91884272293878 C 79.92205692666016 17.696660182243978 80.34632099537208 18.686609675905153 80.27561031725344 19.74726984768497 C 80.34632099537208 20.80793001946479 79.92205692666016 21.797879513125956 79.14423946735496 22.57569697243116 C 78.36642200804975 23.35351443173636 77.37647251438858 23.777778500448292 76.31581234260877 23.707067822329634 L 23.777778500448292 23.777778500448278 L 23.707067822329606 76.31581234260875 C 23.777778500448264 77.37647251438858 23.353514431736343 78.36642200804975 22.575696972431146 79.14423946735495 C 21.79787951312595 79.92205692666015 20.807930019464777 80.34632099537207 19.747269847684947 80.27561031725342 C 18.68660967590513 80.34632099537208 17.69666018224396 79.92205692666015 16.918842722938763 79.14423946735495 C 16.141025263633566 78.36642200804974 15.71676119492163 77.37647251438858 15.787471873040289 76.31581234260875 Z " fill="#454545" stroke="none"/><mask id="_mask_0GVmEzOEGlAnBRnfBMe2hX6CjbbItZhe"><path d=" M 15.787471873040289 76.31581234260875 L 15.716761194921645 20.949351375702086 L 17.272396113532054 17.27239611353204 L 20.949351375702093 15.71676119492163 L 76.31581234260878 15.787471873040303 C 77.37647251438858 15.716761194921645 78.36642200804975 16.141025263633576 79.14423946735496 16.91884272293878 C 79.92205692666016 17.696660182243978 80.34632099537208 18.686609675905153 80.27561031725344 19.74726984768497 C 80.34632099537208 20.80793001946479 79.92205692666016 21.797879513125956 79.14423946735496 22.57569697243116 C 78.36642200804975 23.35351443173636 77.37647251438858 23.777778500448292 76.31581234260877 23.707067822329634 L 23.777778500448292 23.777778500448278 L 23.707067822329606 76.31581234260875 C 23.777778500448264 77.37647251438858 23.353514431736343 78.36642200804975 22.575696972431146 79.14423946735495 C 21.79787951312595 79.92205692666015 20.807930019464777 80.34632099537207 19.747269847684947 80.27561031725342 C 18.68660967590513 80.34632099537208 17.69666018224396 79.92205692666015 16.918842722938763 79.14423946735495 C 16.141025263633566 78.36642200804974 15.71676119492163 77.37647251438858 15.787471873040289 76.31581234260875 Z " fill="white" stroke="none"/></mask><path d=" M 15.787471873040289 76.31581234260875 L 15.716761194921645 20.949351375702086 L 17.272396113532054 17.27239611353204 L 20.949351375702093 15.71676119492163 L 76.31581234260878 15.787471873040303 C 77.37647251438858 15.716761194921645 78.36642200804975 16.141025263633576 79.14423946735496 16.91884272293878 C 79.92205692666016 17.696660182243978 80.34632099537208 18.686609675905153 80.27561031725344 19.74726984768497 C 80.34632099537208 20.80793001946479 79.92205692666016 21.797879513125956 79.14423946735496 22.57569697243116 C 78.36642200804975 23.35351443173636 77.37647251438858 23.777778500448292 76.31581234260877 23.707067822329634 L 23.777778500448292 23.777778500448278 L 23.707067822329606 76.31581234260875 C 23.777778500448264 77.37647251438858 23.353514431736343 78.36642200804975 22.575696972431146 79.14423946735495 C 21.79787951312595 79.92205692666015 20.807930019464777 80.34632099537207 19.747269847684947 80.27561031725342 C 18.68660967590513 80.34632099537208 17.69666018224396 79.92205692666015 16.918842722938763 79.14423946735495 C 16.141025263633566 78.36642200804974 15.71676119492163 77.37647251438858 15.787471873040289 76.31581234260875 Z " fill="none" stroke="none" stroke-width="16" mask="url(#_mask_0GVmEzOEGlAnBRnfBMe2hX6CjbbItZhe)"/></svg>

<svg xmlns="http://www.w3.org/2000/svg" width="96" height="96"><path d="M15.787 76.316l-.07-55.367 1.555-3.677 3.677-1.555 55.367.07c1.06-.07 2.05.354 2.828 1.132.778.778 1.202 1.768 1.132 2.828.07 1.06-.354 2.05-1.132 2.829-.778.778-1.768 1.202-2.828 1.131l-52.538.07-.07 52.539c.07 1.06-.354 2.05-1.132 2.828-.778.778-1.768 1.202-2.829 1.132-1.06.07-2.05-.354-2.828-1.132-.778-.778-1.202-1.768-1.132-2.828z" fill="#454545"/></svg>
